X:161
T:P&O Polka, The
R:polka
C:Christy Leahy
Z:id:hn-polka-161
M:2/4
L:1/8
K:Edor
B,E EF | G2 FE | FD D>E | FD ED |
B,E EF | G2 FA | GB Ad |1 e2 e2 :|2 e2 e>f ||
|: ge fd | ed BA | Fd de | fg/f/ ef |
ge fd | ed BA | GB Ad |1 e2 e>f :|2 e2 e2 ||

